X:1
T:Lieder eines fahrenden Gesellen
T:Ich hab' ein glühend Messer
T:3. Ich hab' ein glühend Messer
T:Gustav Mahler
T:Gustav Mahler
T:Lieder eines fahrenden Gesellen
T:OpenScore (CC0) 
T:OpenScore (CC0) 
T:OpenScore (CC0) 
T:OpenScore (CC0) 
T:OpenScore (CC0) 
T:OpenScore (CC0) 
C:Gustav Mahler
Z:Gustav Mahler
Z:OpenScore (CC0)
%%score ( 1 2 ) { ( 3 7 ) | ( 4 5 6 ) }
L:1/8
Q:1/4=185
M:9/8
K:F
V:1 treble nm="Voice"
V:2 treble 
V:3 treble nm="Piano"
V:7 treble 
V:4 bass 
V:5 bass 
V:6 bass 
V:1
"^(Fast and wild)""^Schnell und wild" z9 | z9 | z9 | z9 | z2!f! ^C D2 E F2 G | A3 A z z z2 d | %6
w: ||||Ich hab' ein glü- hend|Mes- ser, ein|
 f3 f z e d2 c | B3 z2 z !^!A3 | ^G3- G z z !^!B3 | A3- A z E G z F | E3 z2 z z2 z | %11
w: Mes- ser in mei- ner|Brust o|weh! * O|weh! * Das  schneid't so|tief|
 z2 ^C D2 E F2 G | A2 d f6- | f3 z2 z[Q:1/4=175] e3 | %14
w: in je- de Freud' und|je- de Lust,|* so|
"^(leave time)"[Q:1/4=170]"^Zeit lassen" d3- d2 z !^!^c3 | =c3- c z B A2 G | F2 G A3 z2 z | %17
w: tief! * So|tief! * Es  schneid't so|weh und tief!|
[Q:1/4=185]"^a tempo" z2!<(! D D2 D D D D!<)! |!f!!>(! !^!G2 G!mp! G3!>)! z2 z | %19
w: Ach, was ist das für ein|bö- ser Gast!|
 z2!<(! D D2 D D D D!<)! |!f!!>(! !^!A2 A!mp! A3!>)! z2 z |!mf! d2 ^c A2 =B =c3 | =B2 _B ^F2 G A3 | %23
w: Ach, was ist das für ein|bö- ser Gast!|Nim- mer hält er Ruh',|nim- mer hält er Rast!|
 z9 | z9 |!ff! g6 g3 | !^!g3- !^!g !^!^f !^!=f !^!=e !^!_e !^!d | !^!^c3- c z z !^!d3 | %28
w: |||Tag, * nicht bei Nacht, wenn ich|schlief! * O|
!>(! ^c3- c!>)! z z!>(! !^!d3 | ^c3- c!>)! z z z2 z |[Q:1/4=190]"^accel." z9[Q:1/4=193] | %31
w: weh! * O|weh! *||
[Q:1/4=196] z9[Q:1/4=200] |[Q:1/4=200]"_Sehr schnell" z9 | z9 | z9 | z9 | %36
w: |||||
"^Nicht eilen""^(do not rush)"[Q:1/4=180] z9 | z9 | z9[Q:1/4=175] | %39
w: |||
[Q:1/4=170]"^dim." z2 z[Q:1/4=160] z2[Q:1/4=150] z!p! _e3 | %40
w: O|
[Q:1/4=110]"^Langsamer""^(slower)" d6 z2 z |[Q:1/4=104] z9 |[Q:1/4=100] z9 |[Q:1/4=90] z9 | %44
w: weh!||||
"^(even slower)"[Q:1/4=86]"^Noch langsamer" z9 | z2!pp! z"^(whisper)" G2 G G2 G | c2 c c3 z2 z | %47
w: |Wenn ich in den|Him- mel seh,|
 z2 z G G G G2 G | _d2 d d3 z2 z |[Q:1/4=84] z2!pp! z[Q:1/4=82] !^!_e3[Q:1/4=80] !^!=d3 | %50
w: seh' ich zwei blau- e|Au- gen steh'n!|O weh!|
[Q:1/4=78] z2 z[Q:1/4=76]!>(! c3!ppp! B3!>)! | z9 | z2!pp! z G G G G2 G | c2 c c3 z2 z | %54
w: O weh!||Wenn ich im gel- ben|Fel- de geh',|
 z2 z!<(! G G G G2 G |[Q:1/4=80]!mf! d2!<)!"^poco accel." d[Q:1/4=85] d2 z[Q:1/4=90] z2 !^!c | %56
w: seh' ich von Fern das|blon- de Haar im|
[Q:1/4=92] =B2 B B2 z z2 !^!c |!<(! =B6!<)! c3 |!f! =B6- B2 z | %59
w: Win- de weh'n! O|weh! O|weh! *|
"^molto accel."[Q:1/4=100] z2 z[Q:1/4=110] z!f! E ^F[Q:1/4=120] (GA) =B | %60
w: Wenn ich aus * dem|
[Q:1/4=140] ^c2 c[Q:1/4=160] c6 |[M:4/4][Q:1/4=180]"^Sehr schnell""^(very fast)" z2 d2 ^c c z2 | %62
w: Traum auf- fahr'|und hö- re|
 ^d d z2 z2 ^f2 | %63
w: klin- gen ihr|
"^(a little less fast)"[Q:1/4=170]"^Etwas weniger schnell" !^!^e !^!e !^!e !^!e[Q:1/4=160] z4 | %64
w: sil- bern La- chen|
 z2 !^!_g2 f4 | z2 !^!_g2 f4 | z8 | %67
w: o weh!|O weh!||
"^Mit grösster Kraft""^(With the greatest strength)" x2 z B _g4- | g2 =f2 _e2 _d d |!>(! _c6 B2 | %70
w: Ich wollt'|* ich läg' auf der|schwar- zen|
 _A4!>)! z2!p!"^Sehr zurückhaltend""^(molto ritenuto)"[Q:1/4=140]!<(! _G2 | %71
w: Bahr', könnt'|
[Q:1/4=130]!>(! !^!=F2!<)![Q:1/4=120] _E!>)! z[Q:1/4=110] !^!_A4- | %72
w: nim- mer, nim-|
[Q:1/4=100] (3_A2!>(! _G2 =F2 (3_E2 _D2 _C2 | _C2!>)!!pp! _B,2 z4 |[Q:1/4=124] !fermata!z8 | %75
w: * mer die Au- gen auf-|ma- chen!||
[Q:1/4=128] z8[Q:1/4=132] |[Q:1/4=136] z8 |[Q:1/4=140] z8 | %78
w: |||
 z8[Q:1/4=135][Q:1/4=130][Q:1/4=120][Q:1/4=100] | !fermata!z8 |] %80
w: ||
V:2
 x9 | x9 | x9 | x9 | x9 | x9 | x9 | x9 | x9 | x9 | x9 | x9 | x9 | x9 | x9 | x9 | x9 | x9 | x9 | %19
w: |||||||||||||||||||
 x9 | x9 | x9 | x9 | x9 | x9 | B6 B3 | B3- B B B e _e d | x9 | x9 | x9 | x9 | x9 | x9 | x9 | x9 | %35
w: ||||||Nicht bei||||||||||
 x9 | x9 | x9 | x9 | x9 | x9 | x9 | x9 | x9 | x9 | x9 | x9 | x9 | x9 | x9 | x9 | x9 | x9 | x9 | %54
w: |||||||||||||||||||
 x9 | x9 | x9 | x9 | x9 | x9 | x9 |[M:4/4] x8 | x8 | x8 | x8 | x8 | x8 | x2 x2 B4- | B2 B2 x4 | %69
w: |||||||||||||||
 x8 | x8 | x8 | x8 | x8 | x8 | x8 | x8 | x8 | x8 | x8 |] %80
w: |||||||||||
V:3
"^(mit starkem Pedalgebrauch.)""^(with strong pedal use)" z2 z z2 (^C EG.B) | %1
 z2 z z2!>(! (^C EG.B) | z2 (^C EG.B) z2 (C | EG!>)!.B) z2!pp! (^C EG.B) | %4
 z!f! DD DDD [DE][DE][DE] | [DF][DF][DF] [DF][DF][DF] [DF][DF][DF] | %6
 [DF][DF][DF] [DF][DF][DF] [DF][DF][DF] | [DF][DF][DF] [DF][DF][DF]!>(! [DF][DF][DF]!>)! | %8
!p! [DE][DE][DE] [DE][DE][DE]!<(! !^![DE]!>(![DE]!<)![DE]!>)! | %9
!p! [^CE][CE][CE] [CE][CE][CE]!<(! [^A,C]!>(![A,C]!<)![=B,D]!>)! | %10
!<(! [^CE][CE][CE] [CE]CD [CE][DF][EG]!<)! |!f! [FA][FA][FA] [FA][FA][FA] [FA][FA][FA] | %12
 [FA][FA][FA] [FA][FA][FA] [FA][FA][FA] | %13
 [FA][FA][FA] [FA][FA]!>(![FA]"^etwas zurückhaltend (aber nicht zu sehr.)" [FA][FA][FA]!>)! | %14
"^a little slower (but not too much)" !^![Bd]6 !^!^c3 | =c3- c2 B A2 G |!>(! F6 z2!>)! z | %17
!p! !^!DDD DDD!<(! DDD!<)! |!f!!>(! !^![D_E][DE][DE]!>)! [DE]!mp![DE][DE] [DE][DE][DE] | %19
 [D_E][DE][DE] [DE][DE][DE]!<(! [DE][DE][DE]!<)! |!f! !^!A6!mf! !^!d3 | %21
!>(! (dD!^!^c !^!AD!^!=B!>)!!mp!!<(! !^!=cDc)!<)! |!mf! (!^!=B!>(!D_B GAB AD!>)!!mp!A) | %23
!mf! d!>(!D^c AD=B!>)!!mp!!<(! =cDc!<)! |!f! !^!=B!>(!D!^!_B GAB !^!AD!mf!A!>)! | %25
!ff! !///-!g3 G3 !///-!g3/2 G3/2 | !^!g3- .[GBg].[GB^f].[GB=f] .[GB=e].[GB_e].[GBd] | %27
!f!!>(! ^c6!>)! d3 |!p! ^c6!f! d3 |!p! ^c3- c2 !^!g-!f! g2 !^!^f | =f2 =e _e2 d .^c.d.A | %31
 .B.^F.G x2 x4 |"^(very fast)" z2 z z2 (^F Ac_e) | !^![Gg]3- [Gg] z (^F Ac_e) | %34
 !^![Gg]3- [Gg] z (=E GB_d) | !^![=F=f]3- [Ff] z (F _A=B=d) | [_E_e]3 EGB !^![Ee]3 | %37
!f!!>(! (^FAc) !^![_E_e]3 x2 x | x9!>)! |[K:bass]!>(! x9 | %40
 !///-![=B,D]3 G,3!>)!!p! !///-![B,D]3/2 G,3/2 | %41
"^molto riten."!>(! !///-![=B,D]3 G,3 !///-![B,D]3/2 G,3/2 | %42
 !///-![=B,D]3 G,3 !///-![B,D]3/2!>)! G,3/2!pp! | !///-![=B,D]3 G,3 !///-![B,D]3/2 G,3/2 | %44
[K:treble]!ped! (.[Gg].[Gg].[Gg] .[Gg].[Gg].[Gg] .[Gg].[Gg].[Gg])!ped-up! | %45
 !///-!g3 G3 !///-!g3/2 G3/2 | !///-!g3 G3 !///-!g3/2 G3/2 | !///-!g3 G3 !///-!g3/2 G3/2 | %48
 !///-!g3 G3 !///-!g3/2 G3/2 | (!^!gG!^!^f !^!=dG!^!_e !^!=fGf) | %50
!>(! (!^!=eG!^!_e cde (2:3:2d)G!>)! |!ppp! (c_Bc BGD) z2 z | %52
 z2 z[K:bass] (.[=E,C]2 .[G,D] .[C=E]2 .[DF]) | [EG]6 z2 z | %54
 z2 z (.[=E,C]2 .[G,D] .[CE].[DF].[EG]) | %55
[K:treble]"_m.s."!<(! !///-!g3 G3!<)!!mf!!>(! ((!^![cc']3!>)! |!mf! [=B=b]6))!f!!>(! (([cc']3!>)! | %57
!p!!<(! [=B=b]6)) (([cc']3!<)! |!mf!!<(! =b6)) x2 x!<)! | %59
 z!f!!<(! [G,E][=B,^F] [EG][B,F][G,E] [G=B]3!<)! |!ff! !///-![=B^c]3 =G3 !///-![Bc]3/2 G3/2 | %61
[M:4/4]!pp! !///-![=b^c'] ^c !///-![bd'] d !///-![bc'] c !///-![a=c'e'] e | %62
"_cresc." !///-![_b_d'_e'] _e !///-![_a_c'_f'] _f !///-![ac'e'] e !///-![=b=d'^f'] ^f | %63
!f!"_rit." (3[=a_c'_e'=f'][ac'e'f'][ac'e'f'] (3[ac'e'f'][ac'e'f'][ac'e'f'] (3[ac'e'f'][ac'e'f'][ac'e'f'] (3:2:2z2!f! (!^!=f | %64
 (3:2:2!^!b2)!<(! (a (3_c'_e'._g') (3:2:2z2 (!^!f (3:2:2!^!b2) (a | %65
 (3_c'_e'._g')!<)![I:staff +1] (3[B,FB][I:staff -1]=ac' (3e'g'[I:staff +1][B,FB][I:staff -1] a/c'/e'/g'/ | %66
!fff![I:staff +1] (10:8:10(_B,/=C/_E/_G/=A/[I:staff -1]c/_e/_g/a/c'/)[I:staff +1] (9:8:9(_B/=c/_e/_g/[I:staff -1]a/c'/_e'/_g'/=a'/) | %67
!ff! [_b_e'_g'_b'] z!f! !^![B_e_gb]4!>(! !^![_c_e_a]2 | %68
 !^![_B_e_g]2 !^![_A_cf]2 !^![_GBe]2 !^![_EG_d]2!>)! | !^![_G_c]6 !^![_D_FB]2 | !^![_E_A]6 !^!_G2 | %71
 (F2 _E2- [E_A-]4 |!pp!!>(! (3_A2) _G2 F2 (3_E2 _D2[I:staff +1] _C2-!>)! |[I:staff -1] z8!ped! | %74
[K:bass] (3:2:2z2"_accel."!ppp! (D, F,/_A,/._C/)!ped-up! z/ !fermata!z2!ped! z (D, | %75
"_accel." F,/_A,/._C/)!ped-up! z/ z2 z (D,"_accel." F,/_A,/._C/) z/ | %76
[K:treble]"^accel." (3z (G,_A, (3_CDF (3_ACD (3F_A_c) | %77
 (3z"^a tempo""_veloce""_nicht schleppen""_(do not drag)" (=a_c' (3_bf_g (3d_e=A (3BF_G | %78
 (3D_E_G (3FEx"_poco rit."!>(![I:staff +1] (3_CB,_G,!>)!!pppp! (3_E,B,,_G,,) |[I:staff -1] x8 |] %80
V:4
!ff! !^![D,,A,,D,]2 .A,- D2 x4 | !^![D,,A,,D,]2 .A,- D2 x4 | !^![D,A,D]2 z z2 z !^![D,A,D]2 z | %3
 z2 z !^![D,A,D]2 z z2 z | z2 .[^C,,^C,] [D,,D,]2 [E,,E,] [F,,F,]2 [G,,G,] | [A,,A,]6 z2 z | %6
 z2 [A,,,A,,] [D,,D,]2 [E,,E,] [F,,F,][G,,G,][A,,A,] | [B,,B,]6 (!^!A,3 | ^G,6) (!^!B,3 | %9
 A,3-) A,2 .E, G,2 .F, |!p! A,,A,A, A,_B,A, G,F,E, | D,2 z z2 z z2 z | %12
 z2!<(! [^C,,^C,] [D,,D,]2 [E,,E,] [F,,F,]2 [G,,G,] | [A,,A,]2 [D,D]!<)!!ff! [F,F]6- | %14
 [F,F]6- [F,F]3 |!p! x6 [B,D][B,D][B,D] | [A,D][A,D][A,D] [^G,D][G,D][G,D] [=G,^C][G,C][G,C] | %17
 z2 .D, F,2 .G, .A,.G,.F, | !^!_B,6 z2 z | z2 .D, .G,.A,.B, .C.B,.A, | !^!C6 [D,D]3 | %21
 (D,D,,D, (2:3:2E,D,, (2:3:2^F,D,,) | (2:3:2(G,D,, (2:3:2E,D,, (2:3:2=F,D,,) | %23
 (D,D,,D, (2:3:2E,D,, (2:3:2^F,D,,) | (2:3:2(G,D,, (2:3:2=E,D,, (2:3:2=F,D,,) | !^!G6 !^!^F3 | %26
 !^!=F6 .=E._E.D | ^C6!f! !^!B,3 | !^!_E6 !^!B,3 | !^!E6 !^!B,3 | ^C3- C2 .D ._E.D.A, | %31
 .B,.^F,.G, .^C.D.B,!<(! .G,.D,.B,,!<)! |!f! !^![G,,,D,,G,,]2 .D !^!G2 z z2 z | %33
 [G,,D,G,]2 .D !^!G2 z z2 z | [G,,D,G,]2 .D !^!G2 z z2 z | [G,,D,G,]2 .D !^!G2 z z2 z | %36
 [G,,_E,G,]2 D z2 z [G,,C,G,]2 =F | z2 z [G,,D,G,]2 (x ^F,A,C | %38
[I:staff -1] _E)"^m. g."[I:staff +1](=F,^F, A,C[I:staff -1]E)!mp!"_m. s."[I:staff +1] (=F,^F,A, | %39
[I:staff -1] C_E)[I:staff +1][G,,D,=F,][I:staff -1] (^F,/A,/C/E/"^rit." CA,F,)[I:staff +1] x | %40
 z2 (G,, D,G,G,, D,3) | z2 (G,, D,G,G,, D,3) | z2 (G,, D,3-) D,2 (G,, | D,2) (G,, D,3) G,,3 | %44
!pp! z9 | [G,,G,]3 z (.[G,D][I:staff -1].[EG] .[EG][I:staff +1].[G,D][I:staff -1].[EG]) | %46
[I:staff +1][K:treble] [Gc]6 z2 z |[K:bass] [G,,,G,,]3!pp! z (.[=E,C].[G,D] .[C=E].[DF].[EG]) | %48
[I:staff -1] !^![FG_d]6[I:staff +1] z2 z |"^poco rit." (2:3:2G,G,, (2:3:2A,G,, (2:3:2=B,G,, | %50
 (2:3:2CG,, (2:3:2A,G,, (2:3:2_B,G,, | (2:3:2[_E,_A,]G,, (2:3:2[D,G,]G,, G,D,G,, | %52
!ppp! (G,,,G,,G,,, G,,G,,,G,, G,,,G,,G,,, | G,,G,,,G,, G,,,G,,G,,, G,,G,,,G,, | %54
 G,,,G,,G,,, G,,G,,,G,, G,,,G,,G,,,- | [G,,,G,,]3) x2 x[K:treble] !///-!=F3/2 =A3/2 | %56
 !///-!=F3 A3 !///-!F3/2 A3/2 | !///-!F3 A3 !///-!F3/2 A3/2 | (^G3 =G3)[K:bass] =B,,E,,B,, | %59
 (4:3:4(E,,=B,,E,B,, (4:3:4E,,B,,E,B,, (4:3:4E,,B,,E,B,,- | %60
 [E,,B,,E,])[K:treble] .=E.^F .G.F.E .G.F.E |[M:4/4] (3z ^E^F (3GFE (3GFE (3AGF | %62
 (3_B_AG (3_cBA (3cBA (3cBA | [=A,_C_E=F] z z2 z2 !^![B,FB]2 |"_sempre Ped." z4 [B,FB]2 z2 | x8 | %66
 x8 |[K:bass] !///-!B,,,2 B,,2 !///-!B,,,2 B,,2 | !///-!B,,,2 B,,2 x2"^m.s." !^!B,2 | %69
!mf!!>(! !^!_E6 !^!=G,2 | !^!_C8!>)! | (([=A,=C]8 | [A,C_E]4)) x4 | %73
!ppp! (C2 B,2) x2 [B,,,_E,,B,,]2- | [B,,,E,,B,,]3 z !fermata![B,,,_E,,B,,]4- | %75
 [B,,,E,,B,,] z [B,,,_E,,B,,]4- [B,,,E,,B,,]2- | [B,,,E,,B,,]8 | [_E,,,_E,,]8- | [E,,,E,,]8 | %79
 !fermata![D,,,D,,]8 |] %80
V:5
 [D,,A,,D,]6- [D,,A,,D,]3 | [D,,A,,D,]6- [D,,A,,D,]3 | x9 | x9 | x9 | x9 | x9 | x9 | x9 | x9 | x9 | %11
 x9 | x9 | x9 | x9 | [^F,,^F,]6 [G,,G,]3 | [A,,A,-]6 A,3 | x9 | x9 | x9 | x9 | x9 | x9 | x9 | x9 | %25
 x9 | x9 | x9 | x9 | x9 | x9 | x3 .^C,.D,.B,, .G,,.D,,.B,,, | x9 | x9 | x9 | x9 | x9 | %37
 x2 x x2 ^E, z2 z | z [G,,D,]2 x2 x [G,,D,]2 x | x9 | x9 | x9 | x9 | x9 | x9 | x9 |[K:treble] x9 | %47
[K:bass] x9 | x9 | x9 | x9 | x9 | x9 | x9 | x9 |[I:staff -1] [F_Ad]6[K:treble][I:staff +1] =E3 | %56
 !^!^D6 !^!E3 | F6 (2:3:2E^D | E6[K:bass] x2 x | x9 | x[K:treble] x8 |[M:4/4] x8 | x8 | x8 | x8 | %65
 x8 | x8 |[K:bass] x8 | x4 !///-!B,,,2 B,,2 | !///-!B,,,2 B,,2 !///-!B,,,2 B,,2 | %70
 !///-!B,,,2 B,,2 !///-!B,,,2!p! B,,2 | !///-!B,,,2 B,,2 !///-!B,,,2 B,,2 | %72
 !///-!B,,,2 B,,2 !///-!B,,,2 B,,2 | !///-!B,,,3 B,,3 x2 | x8 | x8 | x8 | x8 | x2 (3x x =A, x4 | %79
 x8 |] %80
V:6
 x3 A,6 | x3 A,6 | x9 | x9 | x9 | x9 | x9 | x9 | x9 | x9 | x9 | x9 | x9 | x9 | x9 | x9 | x9 | x9 | %18
 x9 | x9 | x9 | x9 | x9 | x9 | x9 | x9 | x9 | x9 | x9 | x9 | x9 | x9 | x9 | x9 | x9 | x9 | x9 | %37
 x9 | x9 | x9 | x9 | x9 | x9 | x9 | x9 | x9 |[K:treble] x9 |[K:bass] x9 | x9 | x9 | x9 | x9 | x9 | %53
 x9 | x9 | x6[K:treble] x3 | x9 | x9 | x6[K:bass] x3 | x9 | x[K:treble] x8 |[M:4/4] x8 | x8 | x8 | %64
 x8 | x8 | x8 |[K:bass] x8 | x8 | x8 | x8 | x8 | x4 [=A,-_C]4 | A,2 x2 x4 | x8 | x8 | x8 | x8 | %78
 x8 | x8 |] %80
V:7
 x9 | x9 | x9 | x9 | x9 | x9 | x9 | x9 | x9 | x9 | x9 | x9 | x9 | x9 | %14
 [DF][DF][DF] [DF][DF][DF] [DF][DF][DF] | [_EA][CE][CE] [CE][CE][CE] x2 x | x9 | x9 | x9 | x9 | %20
 [D_E]!>(![DE][DE]!p! [DE]!>)![DE][DE] dDd- | x9 | x9 | x9 | x9 | x9 | %26
 !///-!B3/2!>(! G3/2 x x/ x/ x4!>)! | [GB][GB][GB] [GB]!p![GB][GB] [GB]!>(![GB][GB]!>)! | %28
 [GB][GB][GB] [GB][GB][GB] [GB]!>(![GB][GB]!>)! | [GB][GB][GB] [GB][GB][GB] [GB]!>)!!>(![GB][GB] | %30
 [GB][GB][GB] [GB]!>(![GB][GB] [GB] z z!>)! | x9 | x9 | x9 | x9 | x9 | x9 | x9 | x9 |[K:bass] x9 | %40
 x9 | x9 | x9 | x9 |[K:treble] x9 | x9 | x9 | x9 | x6 x2 x | x9 | x9 | x9 | x3[K:bass] x6 | x9 | %54
 x9 |[K:treble] x6 x2 x | x9 | x9 | !///-!e3 =B3 z2 z | x9 | x9 |[M:4/4] x8 | x8 | x8 | x8 | x8 | %66
 x8 | x8 | x8 | x8 | x8 | x8 | x8 | x8 |[K:bass] x8 | x8 |[K:treble] x8 | x8 | x8 | x8 |] %80

